resources/svg/igap.svg

<svg xmlns="http://www.w3.org/2000/svg" viewBox="4 4 16 16" fill="currentColor">
<path fill-rule="evenodd" clip-rule="evenodd" d="M11.245 4.03884C11.352 4.02873 11.4596 4.01857 11.5653 4H12.451C12.5719 4.01714 12.6933 4.03119 12.8148 4.04525C13.0722 4.07504 13.3297 4.10483 13.5824 4.16403C13.9553 4.23713 14.3214 4.34103 14.6771 4.47467C15.0731 4.61582 15.4563 4.7907 15.8223 4.99741C17.1833 5.75969 18.2847 6.91219 18.9846 8.30629C19.1929 8.71534 19.3619 9.14327 19.4893 9.58429C19.6226 10.0237 19.7142 10.4748 19.7627 10.9314C19.7948 11.2157 19.811 11.5015 19.8114 11.7876V11.8068C19.8111 12.2007 19.7808 12.594 19.7207 12.9833C19.6253 13.631 19.4451 14.2633 19.1847 14.864C18.7014 15.9935 17.9585 16.9932 17.0162 17.7817C17.017 17.9379 17.0186 18.0944 17.0202 18.251C17.0257 18.794 17.0313 19.3384 17.0042 19.8798C16.9829 19.9212 16.9592 19.9613 16.9333 20H16.8071C16.4828 19.8313 16.1614 19.6554 15.84 19.4795C15.5523 19.3221 15.2646 19.1646 14.9745 19.0122C13.8838 19.4608 12.7057 19.6568 11.5284 19.5853C10.3512 19.5139 9.20541 19.177 8.17688 18.5999C7.14836 18.0227 6.26378 17.2203 5.58944 16.2527C4.9151 15.2851 4.46847 14.1775 4.28304 13.0127C4.1926 12.4208 4.16701 11.8209 4.20673 11.2234C4.23526 10.8613 4.28866 10.5015 4.36655 10.1467C4.45792 9.70856 4.5905 9.28005 4.76251 8.86688C4.92301 8.46296 5.12053 8.07476 5.35255 7.70724C5.6727 7.18742 6.05262 6.70687 6.48455 6.27542C6.67917 6.08208 6.88458 5.89993 7.09982 5.72984C8.27088 4.7817 9.6931 4.19577 11.1922 4.04386C11.2098 4.04216 11.2274 4.0405 11.245 4.03884ZM12.1528 7.10546C11.7019 7.29232 11.3002 7.58067 10.9789 7.94811C10.6246 8.3669 10.381 8.86727 10.2705 9.40457C10.1924 9.8197 10.1898 10.2455 10.2627 10.6616C10.3163 10.9365 10.4002 11.2034 10.4843 11.4704C10.5359 11.6346 10.5876 11.7987 10.6322 11.9648C10.7837 12.4186 10.8213 12.9027 10.7415 13.3744C10.6769 13.6852 10.5472 13.9789 10.361 14.236C10.1747 14.4931 9.93615 14.7079 9.66092 14.8662C9.3857 15.0245 9.08008 15.1228 8.76417 15.1545C8.44826 15.1862 8.12922 15.1506 7.82803 15.0502C7.68153 14.981 7.52961 14.9239 7.37379 14.8795C7.60767 15.2389 7.90419 15.5533 8.24923 15.8078C8.83256 16.249 9.51278 16.5446 10.2333 16.67C10.9539 16.7954 11.694 16.747 12.3921 16.5288C13.3933 16.228 14.2499 15.5713 14.8003 14.6824C15.0064 14.3087 15.1401 13.8993 15.1944 13.4759C15.2569 12.9267 15.2085 12.3706 15.052 11.8404C14.9217 11.4335 14.7445 11.0431 14.5239 10.6772C14.3717 10.4376 14.2011 10.2109 14.0306 9.98424C13.9231 9.84137 13.8157 9.69849 13.7127 9.55238C13.451 9.22596 13.2435 8.85957 13.0981 8.46725C13.0125 8.18439 13.0162 7.882 13.1088 7.60135C13.2014 7.32069 13.3783 7.07543 13.6154 6.89903L13.5788 6.87079C13.0917 6.8383 12.6038 6.91861 12.1528 7.10546Z"/>
</svg>

<svg xmlns="http://www.w3.org/2000/svg" viewBox="4.18 4 15.63 16" fill="currentColor"><path fill-rule="evenodd" d="M11.245 4.039c.107-.01.215-.02.32-.039h.886c.12.017.242.031.364.045.257.03.515.06.767.119a6.87 6.87 0 0 1 1.095.31 7.808 7.808 0 0 1 5.086 6.457c.032.285.048.57.048.857v.019c0 .394-.03.787-.09 1.176a7.811 7.811 0 0 1-2.704 4.798c0 .157.002.313.003.47.006.543.011 1.087-.016 1.629a1.218 1.218 0 0 1-.07.12h-.127c-.324-.169-.646-.345-.967-.52-.288-.158-.575-.315-.865-.468a7.814 7.814 0 0 1-10.768-7.789c.028-.362.082-.722.16-1.076.09-.438.223-.867.396-1.28.16-.404.358-.792.59-1.16.32-.52.7-1 1.132-1.432.194-.193.4-.375.615-.545a7.744 7.744 0 0 1 4.145-1.691Zm.908 3.066c-.451.187-.853.476-1.174.843-.354.419-.598.92-.708 1.457-.079.415-.081.84-.008 1.257.053.274.137.541.221.808.052.165.104.329.148.495.152.454.19.938.11 1.41a2.25 2.25 0 0 1-2.914 1.675 2.968 2.968 0 0 0-.454-.17c.234.359.53.673.875.928a4.595 4.595 0 0 0 4.143.72 4.281 4.281 0 0 0 2.408-1.846c.206-.373.34-.783.394-1.206a4.128 4.128 0 0 0-.142-1.636 5.504 5.504 0 0 0-.528-1.163c-.152-.24-.323-.466-.493-.693a17.288 17.288 0 0 1-.318-.432 3.903 3.903 0 0 1-.615-1.085 1.436 1.436 0 0 1 .517-1.568l-.036-.028a3.174 3.174 0 0 0-1.426.234Z" clip-rule="evenodd"/></svg>
